!!!SOCIAL_FUNCTION: war songs
!!!PDT:	1943
!!!LING_GROUP: Muskogean
!!!LANG: Non-Tone
!!!Specific Region: Oklahoma, California, Mississippi, Louisiana, Texas, Alabama
!!!REG: Southeast
!!!COM: Anon.
!!!OTL: "Begging for Gunpower" Song
!!!ODT: <1933//
!!!MPN: Lysander Tubby
!!!MLC: Philadelphia, Mississippi, United States of America
!!!Song was recorded in January 1933.
!!!AGN: monody
!!!AMT: irregular
!!!RWG: Transcribed pitches, durations, and meters are only approximate.
**kern
*ICvox
*Imale
*clefF4
*k[b-e-]
*M3/4
*MM69
=1-
8.G
16D
8.D
16G
8F
16F
32D
32r
*M2/4
=2
16F
8F
16F
8.F
16B-
*M5/8
=3
8B-
8A-
16A-
16A-
4D
*M3/8
=4
16F
8F
16F
8F
*M3/4
=5
8.G
16D
8.D
16G
16F
16F
16F
16r
*M3/8
=6
16F
8F
16F
8F
*M3/4
=7
8.G
16D
8.D
16G
16F
16F
16F
16r
*M2/4
=8
16F
8F
16F
8.F
16B-
*M5/8
=9
8B-
8A-
16A-
16A-
4D
*M3/8
=10
16F
8F
16F
8F
*M3/4
=11
8.G
16D
8.D
16G
16F
16F
16F
16r
*M3/8
=12
16F
8F
16F
8F
==
*-
!!!CNT: Choctaw
!!!TXO: Choctaw
!!!OCY: United States
!!!OCL: Frances Densmore
!!!YOR: Frances Densmore, "Choctaw Music"
!!!YOR: Bulletin 136, page 125, No. 2
!!!PPR: Smithsonian Institution, Bureau of American Ethnology
!!!PPR: Government Printing Office
!!!PDT: 1943
!!!PPP: Washington, DC, United States of America
!!!YEC: Electronic Copyright 2000 David Huron
!!!YER: August 2000
!!!YEN: United States of America
!!!ENC: David Huron
!!!RDT: August 27, 2000
!!!EEV: Release 1.0
!!!AIN: vox
